Newaita-dark/actions/22/format-disconnect-node.svg

<?xml version="1.0" encoding="UTF-8"?>
<svg xmlns="http://www.w3.org/2000/svg" xmlns:xlink="http://www.w3.org/1999/xlink" width="22pt" height="22pt" viewBox="0 0 22 22" version="1.1">
<g id="surface1">
<path style=" stroke:none;fill-rule:nonzero;fill:rgb(74.117649%,74.117649%,74.117649%);fill-opacity:1;" d="M 2.273438 14.726562 C 1.519531 14.726562 0.910156 15.332031 0.910156 16.089844 L 0.910156 19.726562 C 0.910156 20.484375 1.519531 21.09375 2.273438 21.09375 L 5.914062 21.09375 C 6.667969 21.09375 7.277344 20.484375 7.277344 19.726562 L 7.277344 16.089844 C 7.277344 15.332031 6.667969 14.726562 5.914062 14.726562 Z M 3.183594 16.089844 L 5.003906 16.089844 C 5.507812 16.089844 5.914062 16.496094 5.914062 17 L 5.914062 18.820312 C 5.914062 19.324219 5.507812 19.726562 5.003906 19.726562 L 3.183594 19.726562 C 2.679688 19.726562 2.273438 19.324219 2.273438 18.820312 L 2.273438 17 C 2.273438 16.496094 2.679688 16.089844 3.183594 16.089844 Z M 3.183594 16.089844 "/>
<path style=" stroke:none;fill-rule:nonzero;fill:rgb(74.117649%,74.117649%,74.117649%);fill-opacity:1;" d="M 15.917969 14.726562 C 15.160156 14.726562 14.554688 15.332031 14.554688 16.089844 L 14.554688 19.726562 C 14.554688 20.484375 15.160156 21.09375 15.917969 21.09375 L 19.554688 21.09375 C 20.3125 21.09375 20.921875 20.484375 20.921875 19.726562 L 20.921875 16.089844 C 20.921875 15.332031 20.3125 14.726562 19.554688 14.726562 Z M 16.371094 16.089844 L 19.101562 16.089844 C 19.351562 16.089844 19.554688 16.292969 19.554688 16.542969 L 19.554688 19.273438 C 19.554688 19.523438 19.351562 19.726562 19.101562 19.726562 L 16.371094 19.726562 C 16.121094 19.726562 15.917969 19.523438 15.917969 19.273438 L 15.917969 16.542969 C 15.917969 16.292969 16.121094 16.089844 16.371094 16.089844 Z M 16.371094 16.089844 "/>
<path style=" stroke:none;fill-rule:nonzero;fill:rgb(74.117649%,74.117649%,74.117649%);fill-opacity:1;" d="M 12.734375 17.226562 L 12.734375 18.589844 L 14.554688 18.589844 L 14.554688 17.226562 Z M 7.277344 17.226562 L 7.277344 18.589844 L 9.097656 18.589844 L 9.097656 17.226562 Z M 7.277344 17.226562 "/>
<path style=" stroke:none;fill-rule:nonzero;fill:rgb(74.117649%,74.117649%,74.117649%);fill-opacity:1;" d="M 2.273438 1.082031 C 1.519531 1.082031 0.910156 1.691406 0.910156 2.445312 L 0.910156 6.085938 C 0.910156 6.839844 1.519531 7.449219 2.273438 7.449219 L 5.914062 7.449219 C 6.667969 7.449219 7.277344 6.839844 7.277344 6.085938 L 7.277344 2.445312 C 7.277344 1.691406 6.667969 1.082031 5.914062 1.082031 Z M 2.730469 2.445312 L 5.457031 2.445312 C 5.710938 2.445312 5.914062 2.648438 5.914062 2.902344 L 5.914062 5.628906 C 5.914062 5.882812 5.710938 6.085938 5.457031 6.085938 L 2.730469 6.085938 C 2.476562 6.085938 2.273438 5.882812 2.273438 5.628906 L 2.273438 2.902344 C 2.273438 2.648438 2.476562 2.445312 2.730469 2.445312 Z M 2.730469 2.445312 "/>
<path style=" stroke:none;fill-rule:nonzero;fill:rgb(74.117649%,74.117649%,74.117649%);fill-opacity:1;" d="M 15.917969 1.082031 C 15.160156 1.082031 14.554688 1.691406 14.554688 2.445312 L 14.554688 6.085938 C 14.554688 6.839844 15.160156 7.449219 15.917969 7.449219 L 19.554688 7.449219 C 20.3125 7.449219 20.921875 6.839844 20.921875 6.085938 L 20.921875 2.445312 C 20.921875 1.691406 20.3125 1.082031 19.554688 1.082031 Z M 16.371094 2.445312 L 19.101562 2.445312 C 19.351562 2.445312 19.554688 2.648438 19.554688 2.902344 L 19.554688 5.628906 C 19.554688 5.882812 19.351562 6.085938 19.101562 6.085938 L 16.371094 6.085938 C 16.121094 6.085938 15.917969 5.882812 15.917969 5.628906 L 15.917969 2.902344 C 15.917969 2.648438 16.121094 2.445312 16.371094 2.445312 Z M 16.371094 2.445312 "/>
<path style=" stroke:none;fill-rule:nonzero;fill:rgb(74.117649%,74.117649%,74.117649%);fill-opacity:1;" d="M 9.097656 3.582031 L 7.277344 3.582031 L 7.277344 4.945312 L 14.554688 4.945312 L 14.554688 3.582031 Z M 9.097656 3.582031 "/>
<path style=" stroke:none;fill-rule:nonzero;fill:rgb(14.901961%,65.098041%,60.392159%);fill-opacity:1;" d="M 7.542969 8.726562 C 7.535156 8.550781 7.601562 8.382812 7.722656 8.253906 C 7.84375 8.128906 8.011719 8.058594 8.1875 8.058594 L 13.644531 8.058594 C 13.875 8.058594 14.089844 8.183594 14.203125 8.382812 C 14.320312 8.585938 14.316406 8.835938 14.195312 9.03125 L 11.46875 13.582031 C 11.351562 13.773438 11.140625 13.894531 10.914062 13.894531 C 10.6875 13.894531 10.480469 13.773438 10.363281 13.582031 L 7.632812 9.03125 C 7.578125 8.941406 7.546875 8.835938 7.542969 8.726562 Z M 9.324219 9.347656 L 10.914062 11.996094 L 12.503906 9.347656 Z M 9.324219 9.347656 "/>
</g>
</svg>

<svg xmlns="http://www.w3.org/2000/svg" width="22pt" height="22pt" viewBox="0 0 22 22"><path d="M2.273 14.727A1.36 1.36 0 0 0 .91 16.09v3.637c0 .757.61 1.367 1.363 1.367h3.641c.754 0 1.363-.61 1.363-1.367V16.09a1.36 1.36 0 0 0-1.363-1.363zm.91 1.363h1.82c.505 0 .911.406.911.91v1.82a.905.905 0 0 1-.91.907h-1.82a.905.905 0 0 1-.91-.907V17c0-.504.406-.91.91-.91zm0 0M15.918 14.727c-.758 0-1.363.605-1.363 1.363v3.637a1.36 1.36 0 0 0 1.363 1.367h3.637c.758 0 1.367-.61 1.367-1.367V16.09a1.36 1.36 0 0 0-1.367-1.363zm.453 1.363h2.73c.25 0 .454.203.454.453v2.73c0 .25-.203.454-.453.454h-2.73a.453.453 0 0 1-.454-.454v-2.73c0-.25.203-.453.453-.453zm0 0" fill="#bdbdbd"/><path d="M12.734 17.227v1.363h1.82v-1.363zm-5.457 0v1.363h1.82v-1.363zm0 0M2.273 1.082c-.753 0-1.363.61-1.363 1.363v3.64c0 .755.61 1.364 1.363 1.364h3.641c.754 0 1.363-.61 1.363-1.363v-3.64c0-.755-.609-1.364-1.363-1.364zm.457 1.363h2.727c.254 0 .457.203.457.457V5.63a.455.455 0 0 1-.457.457H2.73a.455.455 0 0 1-.457-.457V2.902c0-.254.204-.457.457-.457zm0 0M15.918 1.082a1.36 1.36 0 0 0-1.363 1.363v3.64a1.36 1.36 0 0 0 1.363 1.364h3.637c.758 0 1.367-.61 1.367-1.363v-3.64c0-.755-.61-1.364-1.367-1.364zm.453 1.363h2.73c.25 0 .454.203.454.457V5.63a.454.454 0 0 1-.453.457h-2.73a.454.454 0 0 1-.454-.457V2.902c0-.254.203-.457.453-.457zm0 0" fill="#bdbdbd"/><path d="M9.098 3.582h-1.82v1.363h7.277V3.582zm0 0" fill="#bdbdbd"/><path d="M7.543 8.727a.647.647 0 0 1 .18-.473.647.647 0 0 1 .465-.195h5.457c.23 0 .445.125.558.324a.633.633 0 0 1-.008.648l-2.726 4.551a.654.654 0 0 1-.555.313.648.648 0 0 1-.55-.313l-2.731-4.55a.63.63 0 0 1-.09-.305zm1.781.62l1.59 2.65 1.59-2.65zm0 0" fill="#26a69a"/></svg>
